X: 2
T: Tribute To Michael Dwyer
R: reel
M: 4/4
L: 1/8
K: Amin
|:Aece dBcB|Aece dB G2|Aa a2 gabg|^fdec dBcB|
AEAB cdec|dGBd g2 ag|^fd d2 cA A2|1 EAGB A3 E:|2 EAGB A3 B||
|:c3 d e3 g|a2 ed cAAB|c2 ec Bdga|bc'bg a3 b|
c'bag fedc|BcdB Gbag|^fd d2 cA A2|1 EAGB AeAB:|2 EAGB A4||

composer: Richard Dwyer
